packages/foundations/assets/icons/functional/images/transportation/car_20.svg

<svg width="20" height="20" viewBox="0 0 20 20" fill="none" xmlns="http://www.w3.org/2000/svg">
<g clip-path="url(#clip0_187_883)">
<path fill-rule="evenodd" clip-rule="evenodd" d="M13.6308 3.50673C14.4701 3.51346 15.299 4.17146 15.4899 4.9101C15.6171 5.40253 15.8882 6.59917 16.303 8.5H18V10.5H16.895C16.745 11.9927 16.645 12.8691 16.595 13.129C16.5199 13.5189 16.303 14.0392 16.0009 14.3259V16.5H13.5V15.241C12.3333 15.4137 11.1667 15.5 10 15.5C8.83333 15.5 7.66667 15.4137 6.5 15.241L6.49327 16.5H4L3.99932 14.3259C3.76531 14.093 3.53706 13.637 3.45001 13.3214C3.39197 13.111 3.27663 12.1705 3.104 10.5H2V8.5H3.696L4.45716 5.06837C4.69517 4.2633 5.4 3.5 6.5434 3.5C7.68679 3.5 12.7914 3.5 13.6308 3.50673ZM8.63716 11.5085C8.37877 11.5477 8.15869 11.7195 8.058 11.9607L7.75435 13.1685C7.71781 13.499 7.90989 13.8867 8.33425 13.9829C8.75861 14.0792 9.06538 13.8447 9.19249 13.5383L9.335 13H10.664L10.8037 13.529C10.9407 13.8721 11.3135 14.0697 11.6819 13.9776C12.0503 13.8855 12.2863 13.5357 12.2456 13.1685L11.942 11.9607C11.8413 11.7195 11.6212 11.5477 11.3628 11.5085H8.63716ZM4.9182 10.8532C4.51461 10.76 4.11189 11.0117 4.01871 11.4153C3.9333 11.7852 4.13763 12.1544 4.48316 12.2852L6.04233 12.6522C6.44593 12.7454 6.84865 12.4937 6.94182 12.0901C7.02724 11.7201 6.8229 11.3509 6.47738 11.2202L4.9182 10.8532ZM15.9918 11.4153C15.9064 11.0453 15.5609 10.803 15.193 10.837L13.6308 11.1906C13.2272 11.2838 12.9755 11.6865 13.0687 12.0901C13.1541 12.4601 13.4996 12.7024 13.8675 12.6684L15.4298 12.3147C15.8334 12.2216 16.085 11.8189 15.9918 11.4153ZM13.9577 5.2H6.04326L5.4 8.5H14.6L13.9577 5.2Z" fill="#1A1C1F"/>
</g>
<defs>
<clipPath id="clip0_187_883">
<rect width="20" height="20" fill="white"/>
</clipPath>
</defs>
</svg>

<svg xmlns="http://www.w3.org/2000/svg" width="20" height="20" fill="none"><g clip-path="url(#a)"><path fill="#1A1C1F" fill-rule="evenodd" d="M13.63 3.507c.84.006 1.669.664 1.86 1.403q.19.74.813 3.59H18v2h-1.105q-.225 2.24-.3 2.629c-.075.39-.292.91-.594 1.197V16.5H13.5v-1.259a23.9 23.9 0 0 1-7 0L6.493 16.5H4v-2.174c-.235-.233-.463-.689-.55-1.005q-.087-.315-.346-2.821H2v-2h1.696l.761-3.432C4.695 4.263 5.4 3.5 6.543 3.5c1.144 0 6.248 0 7.088.007m-4.993 8.002a.75.75 0 0 0-.579.452l-.304 1.207a.746.746 0 0 0 .58.815c.425.096.731-.138.858-.445L9.335 13h1.329l.14.529a.75.75 0 0 0 1.442-.36l-.304-1.208a.75.75 0 0 0-.58-.453zm-3.719-.656a.75.75 0 0 0-.435 1.432l1.56.367a.75.75 0 0 0 .434-1.432zm11.074.562a.75.75 0 0 0-.799-.578l-1.562.354a.75.75 0 0 0 .236 1.477l1.563-.353a.75.75 0 0 0 .562-.9M13.958 5.2H6.043L5.4 8.5h9.2z" clip-rule="evenodd"/></g><defs><clipPath id="a"><path fill="#fff" d="M0 0h20v20H0z"/></clipPath></defs></svg>
